X: 798
T: Gel Nazlı Gülüm
C: Alâeddin Yavaşca
O: Turkey
F: http://compmusic.upf.edu/node/140
N: beyati--sarki--curcuna--gel_nazli_gulum--alaeddin_yavasca
N: makam= beyati
N: form= sarki
N: usul= curcuna = 10/8
M: 10/8
L: 1/16
K: C _2/4B   
Q: 1/4=156
%%MIDI tuningsystem comma53
d8-d2e2 c2B2 A2G2  | f8-f2e2 d2c2 B2A2  | \
w:  ARANAĞME  |   | 
a8-a2g^f ga=f6  | 
w:   | 
fefg e4 d2d2 e2d2 c2B2  | (3f2e2d2 d4 c2(3d2c2B2B4A2  | 
w:   |   | 
A4 f2e2 d2c2 B2A4z2  | d8-d2e2 c2B2 A2G2  | \
w:   |  ARANAĞME  | 
f8-f2e2 d2c2 B2A2  | 
w:   | 
a8-a2g^f ga=f6  | fefg e4 d2d2 e2d2 c2B2  | \
w:   |   | 
(3f2e2d2 d4 c2(3d2c2B2B4A2  | 
w:   | 
A4 f2e2 d2c2 B2A4z2  | z4 c2d4(3e2d2c2c4B2  | \
w:   |  Gel  *  naz  | 
(3d2c2B2 B2B2 A2A4A4z2  | 
w:  lı  *  *  *  gü *  lüm   | 
c2B2 A2G4B2 A2B4c2  | d6d4c2 d2e2 f2a2  | \
w:  sa *  *  zı nı   |  çal   | 
g2f2 e2d2 e2f2 g2e2 e2d2  | 
w:  şar *  *  kı *  mı  *  söy  | 
d14d4z2  | e2f2 e2d2 c2d2 e2d2 c2B2  | \
w:  le    |  SAZ  | 
f2e2 d2d2 c2(3cBB BAA6  | 
w:   | 
z4 c2d4(3e2d2c2c4B2  | (3d2c2B2 B2B2 A2A4A4z2  | \
w:  Gel  *  naz  |  lı  *  *  *  gü *  lüm   | 
c2B2 A2G4B2 A2B4c2  | 
w:  sa *  *  zı nı   | 
d6d4c2 d2e2 f2a2  | g2f2 e2d2 e2f2 g2e2 e2d2  | \
w:  çal   |  şar *  *  kı *  mı  *  söy  | 
d14d4z2  | e2f2 e2d2 c2d2 e2c2 B2A2  | 
w:  le    |  SAZ  | 
a2g2 f2e2 d2cd ecd6  | z4 e2f4e2 g2f4e2  | \
w:   |  Geç *  sin   | 
e4 d2d4d2 c2c4B2  | 
w:  ge *  ce ler   | 
d2^c2 d2f2 e2d2 c2_7/8B2 A2G2  | G4 A2B2 c2B2 d2c2 B2A2  | \
w:  tür *  *  lü  *  ha *  ya  |  lât   | 
A4 e2d2 c2B2 A2G2 B2A2  | 
w:  *  i le  *  böy  | 
A14A4z2  | e2f2 e2d2 c2d2 e2c2 B2A2  | \
w:  le    |  SAZ  | 
a2g2 f2e2 d2cd ecd6  | 
w:   | 
z4 e2f4e2 g2f4e2  | e4 d2d4d2 c2c4B2  | \
w:  Geç *  sin   |  ge *  ce ler   | 
d2^c2 d2f2 e2d2 c2_7/8B2 A2G2  | 
w:  tür *  *  lü  *  ha *  ya  | 
G4 A2B2 c2B2 d2c2 B2A2  | A4 e2d2 c2B2 A2G2 B2A2  | \
w:  lât   |  *  i le  *  böy  | 
A14A4z2  | 
w:  le    | 
e2f2 e2d2 c2d2 e2d2 c2B2  | (3A2G2A2 g4 ^f2e2 f2g6  | \
w:  SAZ  |   | 
z4 ^f2g4g4f2 e2d2  | 
w:  Bin  *  zevk   | 
e3d e2^f4g8g2  | ^f2g2 a2=b2 a2^g2 =f2f4e2  | \
w:  i *  *  le  biz   |  mest_ *  *  o *  la *  lım   | 
e4 e2a4^g4a4a2  | 
w:   | 
=b4 a2a2 ^g2g2 f2f4e2  | e18e2  | g2f2 e2e2 d2d2 e2c2 B2A2  | \
w:  baş *  ba *  şa  *  şöy  |  le    |  SAZ  | 
A2G2 e2e2 d2c2 d2e6  | 
w:   | 
f2e2 e4 d2d2 e2d2 d2c2  | c4 e2d2 c2B2 A2B4B2  | \
w:  Bin  *  *  *  zevk   |  *  i le  *  biz   | 
G4 G2d4c2 B2B4A2  | 
w:  mes_ *  to la *  lım   | 
A2B2 c2d2 e2^f2 g2a4a2  | g2f2 e2d2 e2f2 g2e2 e2d2  | \
w:   |  baş *  *  ba *  şa  *  şöy  | 
d18z2  | 
w:  le    | 
e2f2 e2d2 c2d2 e2c2 B2A2  | a2g2 f2e2 d2cd ecd6  | \
w:  SAZ  |   | 
z4 e2f4e2 g2f4e2  | 
w:  Geç *  sin   | 
e4 d2d4d2 c2c4B2  | d2^c2 d2f2 e2d2 c2_7/8B2 A2G2  | \
w:  ge *  ce ler   |  tür *  *  lü  *  ha *  ya  | 
G4 A2B2 c2B2 d2c2 B2A2  | 
w:  lât   | 
A4 e2d2 c2B2 A2G2 B2A2  | A14A4z2  | |


